X:1
T:Title
%%score { ( 1 3 ) | ( 2 4 ) }
L:1/8
M:4/4
K:F
V:1 treble nm="Grand Piano"
V:3 treble 
V:2 bass 
V:4 bass 
V:1
 z4 z2[Q:1/4=100] C2 | A3 A AGFG | A6 z2 | [EB]3 [GB] [GB][FA][EG][FA] | B6 z2 | %5
 [CFc]3 [CFc] [CFc][CFA][CFB][CFc] | d6 z2 | [Fc][FA][CG][CF] [FA]2 [EG]2 | A6 z2 | %9
 [Fc][CFA][B,CG][A,CF] [CFA]2 [B,EG]2 |[M:7/8] z F-F- F- F3 |[M:1/4] F2 | %12
[M:4/4] [EG]3 [_E^F] [=EG]2 [=FA]2 | [Ac][GB][GB]A [CEG]2 C2 | [EG]3 [_E^F] [=EG]2 [=FA]2 | %15
 [Ac][GB][GB]A [CEG]2 C2 | [CFA]3 [CFA] [CFA][CFA][B,FB][Fc] | d-[Fd-][Fd-][Fd-] [Fd]2 [Fd]2 | %18
 [Fc][FA][CG][CF] [FA]2 [EG]2 | A6 z2 | [Fc][CFA][B,CG][A,CF] [CFA]2 [B,EG]2 | %21
[M:7/8] F-F-F- F- F3 |] %22
V:2
 z4 z2 [F,A,]2 | [F,CF]3 [F,CF] [F,CF][F,B,C][F,A,C][F,B,C] | %2
 [F,CF][F,C][F,C][F,C] [F,C]2 [F,A,]2 | [C,G,]3 [C,C] [C,C][C,C][C,C][C,C] | %4
 [C,C][C,C][C,C][C,C] [C,C]2 B,,2 | A,,3 A,, A,,A,,A,,A,, | %6
 [B,,B,][B,,B,][B,,B,][B,,B,] [B,,B,]2 [B,,B,]2 | [C,A,][C,C][C,B,][C,A,] [C,C]2 [C,C]2 | %8
 [F,CF][F,C][F,C][F,C] [F,C]2 [B,,B,]2 | [C,A,]C,C,C, C,2 C,2 | %10
[M:7/8] F,A,,[B,,B,] [D,B,] [F,A,]3 |[M:1/4] [F,A,C]2 |[M:4/4] [C,C]3 [C,C] [C,C]2 [C,C]2 | %13
 [C,C]2 z F C,2 C,2 | [C,C]3 [C,C] [C,C]2 [C,C]2 | [C,C]2 z F C,B,A,G, | F,3 F, _E,E,D,[C,A,] | %17
 [B,,B,][B,,B,][D,B,][F,B,] B,2 [B,,B,]2 | [C,A,][C,C][C,B,][C,A,] [C,C]2 [C,C]2 | %19
 [F,CF][F,C][F,C][F,C] [F,C]2 [B,,B,]2 | [C,A,]C,C,C, C,2 C,2 |[M:7/8] F,A,,B,, D, F,3 |] %22
V:3
 x8 | x8 | z FFF F2 C2 | x8 | GGGG G2 C2 | x8 | FFFF F2 [Fd]2 | x8 | z FFF F2 [Fd]2 | x8 | %10
[M:7/8] [A,F]CD D C3 |[M:1/4] x2 |[M:4/4] x8 | x8 | x8 | x8 | x8 | .F2 z2 z4 | x8 | %19
 z FFF F2 [Fd]2 | x8 |[M:7/8] A,[C_E][B,D] [B,D] [A,C]3 |] %22
V:4
 x8 | x8 | x8 | x8 | x8 | x8 | x8 | x8 | x8 | x8 |[M:7/8] x7 |[M:1/4] x2 |[M:4/4] x8 | %13
 z2 [C,C]2 z4 | x8 | z2 [C,C]2 z4 | x8 | x8 | x8 | x8 | x8 |[M:7/8] x7 |] %22

